svg/system/checks_fill.svg

<?xml version="1.0" encoding="UTF-8"?>
<svg width="24px" height="24px" viewBox="0 0 24 24" version="1.1" xmlns="http://www.w3.org/2000/svg" xmlns:xlink="http://www.w3.org/1999/xlink">
    <title>checks_fill</title>
    <g id="Icon" stroke="none" stroke-width="1" fill="none" fill-rule="evenodd">
        <g id="System" transform="translate(-912.000000, -432.000000)">
            <g id="checks_fill" transform="translate(912.000000, 432.000000)">
                <path d="M24,0 L24,24 L0,24 L0,0 L24,0 Z M12.5935,23.2578 L12.5819,23.2595 L12.5109,23.295 L12.4919,23.2987 L12.4767,23.295 L12.4057,23.2595 C12.3958,23.2564 12.387,23.259 12.3821,23.2649 L12.378,23.2758 L12.3609,23.7031 L12.3659,23.7235 L12.3769,23.7357 L12.4805,23.8097 L12.4953,23.8136 L12.5071,23.8097 L12.6107,23.7357 L12.6233,23.7197 L12.6267,23.7031 L12.6096,23.2758 C12.6076,23.2657 12.601,23.2593 12.5935,23.2578 Z M12.8584,23.1453 L12.8445,23.1473 L12.6598,23.2397 L12.6499,23.2499 L12.6472,23.2611 L12.6651,23.6906 L12.6699,23.7034 L12.6784,23.7105 L12.8793,23.8032 C12.8914,23.8069 12.9022,23.803 12.9078,23.7952 L12.9118,23.7812 L12.8777,23.1665 C12.8753,23.1546 12.8674,23.147 12.8584,23.1453 Z M12.143,23.1473 C12.1332,23.1424 12.1222,23.1453 12.1156,23.1526 L12.1099,23.1665 L12.0758,23.7812 C12.0751,23.7927 12.0828,23.8019 12.0926,23.8046 L12.1083,23.8032 L12.3092,23.7105 L12.3186,23.7024 L12.3225,23.6906 L12.3404,23.2611 L12.3372,23.2485 L12.3278,23.2397 L12.143,23.1473 Z" id="MingCute" fill-rule="nonzero"></path>
                <path d="M18.1315,5.11097 C18.7173,5.69676 18.7173,6.6465 18.1315,7.23229 L13.1818,12.182 C12.596,12.7678 11.6462,12.7678 11.0604,12.182 C10.4747,11.5963 10.4747,10.6465 11.0604,10.0607 L16.0102,5.11097 C16.596,4.52518 17.5457,4.52518 18.1315,5.11097 Z M23.1315,5.11097 C23.7173,5.69676 23.7173,6.6465 23.1315,7.23229 L13.3027,17.0611 C12.6779,17.6859 11.6648,17.6859 11.04,17.0611 L6.86805,12.8891 C6.28226,12.3034 6.28226,11.3536 6.86805,10.7678 C7.45384,10.182 8.40358,10.182 8.98937,10.7678 L12.1714,13.9498 L21.0102,5.11097 C21.596,4.52518 22.5457,4.52518 23.1315,5.11097 Z M1.86805,10.7678 C2.45384,10.182 3.40358,10.182 3.98937,10.7678 L8.23201,15.0105 C8.8178,15.5963 8.8178,16.546 8.23201,17.1318 C7.64622,17.7176 6.69648,17.7176 6.11069,17.1318 L1.86805,12.8891 C1.28226,12.3034 1.28226,11.3536 1.86805,10.7678 Z" id="形状" fill="#09244B"></path>
            </g>
        </g>
    </g>
</svg>

<svg xmlns="http://www.w3.org/2000/svg" width="24" height="24"><g fill="none" fill-rule="evenodd"><path d="M24 0v24H0V0h24ZM12.594 23.258l-.012.002-.071.035-.02.004-.014-.004-.071-.036c-.01-.003-.019 0-.024.006l-.004.01-.017.428.005.02.01.013.104.074.015.004.012-.004.104-.074.012-.016.004-.017-.017-.427c-.002-.01-.009-.017-.016-.018Zm.264-.113-.014.002-.184.093-.01.01-.003.011.018.43.005.012.008.008.201.092c.012.004.023 0 .029-.008l.004-.014-.034-.614c-.003-.012-.01-.02-.02-.022Zm-.715.002a.023.023 0 0 0-.027.006l-.006.014-.034.614c0 .012.007.02.017.024l.015-.002.201-.093.01-.008.003-.011.018-.43-.003-.012-.01-.01-.184-.092Z"/><path fill="#09244B" d="M18.132 5.111a1.5 1.5 0 0 1 0 2.121l-4.95 4.95a1.5 1.5 0 0 1-2.122-2.121l4.95-4.95a1.5 1.5 0 0 1 2.121 0Zm5 0a1.5 1.5 0 0 1 0 2.121l-9.83 9.83a1.6 1.6 0 0 1-2.262 0l-4.172-4.173a1.5 1.5 0 1 1 2.121-2.121l3.182 3.182 8.84-8.839a1.5 1.5 0 0 1 2.12 0ZM1.867 10.768a1.5 1.5 0 0 1 2.121 0l4.243 4.243a1.5 1.5 0 1 1-2.121 2.12L1.868 12.89a1.5 1.5 0 0 1 0-2.121Z"/></g></svg>
